src/icons/svg/newspaper-o.svg

<?xml version="1.0"?><svg xmlns="http://www.w3.org/2000/svg" width="40" height="40" viewBox="0 0 40 40"><path  d="m19.9 12.5h-7.5v7.5h7.5v-7.5z m2.5 12.5v2.5h-12.5v-2.5h12.5z m0-14.9v12.4h-12.5v-12.4h12.5z m12.4 14.9v2.5h-10v-2.5h10z m0-5v2.5h-10v-2.5h10z m0-5v2.5h-10v-2.5h10z m0-4.9v2.4h-10v-2.4h10z m-29.8 18.6v-18.6h-2.5v18.6q0 0.5 0.4 0.9t0.8 0.3 0.9-0.3 0.4-0.9z m32.3 0v-21.1h-29.8v21.1q0 0.6-0.3 1.2h28.8q0.5 0 0.9-0.3t0.4-0.9z m2.5-23.6v23.6q0 1.5-1.1 2.6t-2.7 1.1h-32.3q-1.5 0-2.6-1.1t-1.1-2.6v-21.1h5v-2.5h34.8z"></path></svg>

<svg xmlns="http://www.w3.org/2000/svg" width="40" height="40" viewBox="0 0 40 40"><path d="M19.9 12.5h-7.5V20h7.5v-7.5zM22.4 25v2.5H9.9V25h12.5zm0-14.9v12.4H9.9V10.1h12.5zM34.8 25v2.5h-10V25h10zm0-5v2.5h-10V20h10zm0-5v2.5h-10V15h10zm0-4.9v2.4h-10v-2.4h10zM5 28.7V10.1H2.5v18.6q0 .5.4.9t.8.3.9-.3.4-.9zm32.3 0V7.6H7.5v21.1q0 .6-.3 1.2H36q.5 0 .9-.3t.4-.9zm2.5-23.6v23.6q0 1.5-1.1 2.6T36 32.4H3.7q-1.5 0-2.6-1.1T0 28.7V7.6h5V5.1h34.8z"/></svg>
